!!!COM: Anon.
!!!OTL: Albininha subiu a\ torre
!!!OTL: Romanceiro Folclorico do Brasil
!!!CNT: Brasil
!!!OCY: Brasil
!!!ODT: <1971///
!!!PSR: Irmaos Vitale
!!!PSP: Sao Paulo, Brasil
!!!PDT: 1948///
!!!PPE: Rossini Tavares de Lima
!!!PPG: pages 25-26
!! Romance: Silvaninha
!! Place: Sorocaba, Sao Paulo, Brasil
**kern
*clefG2
*k[b-e-a-]
*M3/4
*MM98
8c
8e-
=
4g
8g
8e-
8c
8e-
=
4g
4g
4a-
=
4g
8f
16f
16f
8f
8g
=
4f
4e-
8c
8e-
=
4.cc
8ee-
8dd
8cc
=
4cc
4g
8c
8e-
=
[4g
8g]
8e-
8c
8e-
=
4g
4g
4a-
=
4g
4f
8f
8g
=
4f
4e-
8c
8e-
=
4.cc
8ee-
8dd
8cc
=
4cc
4g
8g
8a-
=
[4g
8g]
8f
8e-
8d
=
2c
8c
8e-
=
[4g
8g]
8e-
8c
8e-
=
4g
4g
4a-
=
4g
8f
16f
16f
8f
8g
=
4f
4e-
8c
8e-
=
4.cc
8ee-
8dd
8cc
=
4cc
4g
8g
8a-
=
4g
8g
8f
8e-
8d
=
2c
==
*-
